X: 36743
T: Sheffield, The
R: hornpipe
M: 4/4
K: Dmajor
FE|:D2 FA d2 dc|BGBd A2 Ad|c2 ce d2 df|(3(efe) (3(dcB) (3(ABA) (3(GFE)|
D2 FA d2 dc|BGBd A2 Ad|BGBd cAce|1 d2 f2 d2 FE:|2 d2 f2 d2 cd||
|:ecAA Ac de|fdAA Ad ef|(3(gag) (3(fgf) (3(efe) (3(ded)|(3(cdc) (3(BcB) (3(ABA) (3(GFE)|
D2 FA d2 dc|BGBd A2 Ad|BGBd cAce|1 d2 f2 d2 cd:|2 d2 f2 d2||

